public/InstagramLogo.svg

<svg width="33" height="32" viewBox="0 0 33 32" fill="none" xmlns="http://www.w3.org/2000/svg">
<path fill-rule="evenodd" clip-rule="evenodd" d="M16.293 12C14.0838 12 12.293 13.7909 12.293 16C12.293 18.2091 14.0838 20 16.293 20C18.5021 20 20.293 18.2091 20.293 16C20.293 13.7909 18.5021 12 16.293 12ZM10.293 16C10.293 12.6863 12.9793 10 16.293 10C19.6067 10 22.293 12.6863 22.293 16C22.293 19.3137 19.6067 22 16.293 22C12.9793 22 10.293 19.3137 10.293 16Z" fill="#858584"/>
<path fill-rule="evenodd" clip-rule="evenodd" d="M10.793 5.5C8.03154 5.5 5.79297 7.73858 5.79297 10.5V21.5C5.79297 24.2614 8.03154 26.5 10.793 26.5H21.793C24.5544 26.5 26.793 24.2614 26.793 21.5V10.5C26.793 7.73858 24.5544 5.5 21.793 5.5H10.793ZM3.79297 10.5C3.79297 6.63401 6.92698 3.5 10.793 3.5H21.793C25.659 3.5 28.793 6.63401 28.793 10.5V21.5C28.793 25.366 25.659 28.5 21.793 28.5H10.793C6.92698 28.5 3.79297 25.366 3.79297 21.5V10.5Z" fill="#858584"/>
<path d="M22.793 11C23.6214 11 24.293 10.3284 24.293 9.5C24.293 8.67157 23.6214 8 22.793 8C21.9645 8 21.293 8.67157 21.293 9.5C21.293 10.3284 21.9645 11 22.793 11Z" fill="#858584"/>
</svg>

<svg width="33" height="32" fill="none" xmlns="http://www.w3.org/2000/svg"><path fill-rule="evenodd" clip-rule="evenodd" d="M16.293 12a4 4 0 1 0 0 8 4 4 0 0 0 0-8Zm-6 4a6 6 0 1 1 12 0 6 6 0 0 1-12 0Z" fill="#858584"/><path fill-rule="evenodd" clip-rule="evenodd" d="M10.793 5.5a5 5 0 0 0-5 5v11a5 5 0 0 0 5 5h11a5 5 0 0 0 5-5v-11a5 5 0 0 0-5-5h-11Zm-7 5a7 7 0 0 1 7-7h11a7 7 0 0 1 7 7v11a7 7 0 0 1-7 7h-11a7 7 0 0 1-7-7v-11Z" fill="#858584"/><path d="M22.793 11a1.5 1.5 0 1 0 0-3 1.5 1.5 0 0 0 0 3Z" fill="#858584"/></svg>
